!!!COM: Bach, Johann Sebastian
!!!CDT: 1685/3//-1750/7/28/
!!!OTL@@DE: Herr Gott, dich loben alle wir
!!!AGN: 4-Part Chorale
!!!SCT: BH 164
!!!SCT: BWV 326
**harm	**root	**kern	**kern	**kern	**kern
!	!	!bass	!tenor	!alto	!soprno
*	*Iorgan	*Iorgan	*Iorgan	*Iorgan	*Iorgan
*	*	*clefF4	*clefF4	*clefG2	*clefG2
*k[f#c#g#d#]	*k[f#c#g#d#]	*k[f#c#g#d#]	*k[f#c#g#d#]	*k[f#c#g#d#]	*k[f#c#g#d#]
*E:	*E:	*E:	*E:	*E:	*E:
*M3/4	*M3/4	*M3/4	*M3/4	*M3/4	*M3/4
*MM60	*MM60	*MM60	*MM60	*MM60	*MM60
I	4BB-	8E	4g#	4b	4ee
.	.	8D#	.	.	.
=1	=1	=1	=1	=1	=1
vi	2GG	8C#	2g#	2cc#	2ee
.	.	8D#	.	.	.
.	.	8E	.	.	.
.	.	8F#	.	.	.
I7	4BB-	8G#	4g#	4b	4dd#
.	.	8E	.	.	.
=2	=2	=2	=2	=2	=2
IV	2EE-	8A	2e	2a	2cc#
.	.	8B	.	.	.
.	.	8c#	.	.	.
.	.	8d#	.	.	.
I	4BB-	8e	4e	4g#	4b
.	.	8d#	.	.	.
=3	=3	=3	=3	=3	=3
vi	4GG	8c#	2e	4g#	4ee
.	.	8B	.	.	.
V7b/V	4CC	8A	.	4cc#	2ff#
.	.	8G#	.	.	.
V7d	4FF	8A	4d#	4b	.
.	.	8B	.	.	.
=4	=4	=4	=4	=4	=4
I;	2BB-;	2E;	2e;	2b;	2gg#;
V/VI	4DD	4BB#	4d#	4dd#	4gg#
=5	=5	=5	=5	=5	=5
vi	2.GG	8C#	2e	2cc#	2gg#
.	.	8G#	.	.	.
.	.	8c#	.	.	.
.	.	8B	.	.	.
.	.	8A	4e	4cc#	4gg#
.	.	8G#	.	.	.
=6	=6	=6	=6	=6	=6
IV7	4EE-	8A	4e	4cc#	2ff#
.	.	8F#	.	.	.
V	4FF	8B	4d#	4b	.
.	.	8A	.	.	.
Ib	4BB-	8G#	4e	4b	4gg#
.	.	8F#	.	.	.
=7	=7	=7	=7	=7	=7
V7b	4FF	8E	4f#	4b	4aa
.	.	8D#	.	.	.
I	2BB-	8E	2e	2b	2gg#
.	.	8F#	.	.	.
.	.	8G#	.	.	.
.	.	8A	.	.	.
!!linebreak: 2
=8	=8	=8	=8	=8	=8
V;	2FF;	2B;	2d#;	2b;	2ff#;
vi	4GG	4c#	4g#	4cc#	4ee
=9	=9	=9	=9	=9	=9
V	2FF	8d#	2f#	2b	2ff#
.	.	8B	.	.	.
.	.	8c#	.	.	.
.	.	8d#	.	.	.
vi7	4GG	8e	4e	8b	4gg#
.	.	8c#	.	8ee	.
=10	=10	=10	=10	=10	=10
ii7	4CC	8A	4e	4cc#	2ff#
.	.	8G#	.	.	.
V7d	4FF	8A	4d#	8b	.
.	.	8B	.	8a	.
vi	4GG	8c#	4e	4g#	4ee
.	.	8G#	.	.	.
=11	=11	=11	=11	=11	=11
IV	4EE-	8A	8e	4cc#	4cc#
.	.	8E	8g#	.	.
vii7D	4AA	8F#	4a	4cc#	2dd#
.	.	8D#	.	.	.
V/VI	4DD	8G#	4g#	4b#	.
.	.	8GG#	.	.	.
=12	=12	=12	=12	=12	=12
vi;	2GG;	2C#;	2g#;	2cc#;	2ee;
Vb	4FF	4d#	4f#	4b	4bb
=13	=13	=13	=13	=13	=13
I	2BB-	8e	2g#	2b	2gg#
.	.	8f#	.	.	.
.	.	8e	.	.	.
.	.	8d#	.	.	.
vi	4GG	8c#	4g#	4cc#	4ee
.	.	8B	.	.	.
=14	=14	=14	=14	=14	=14
V7d	2FF	8A	2d#	2b	2ff#
.	.	8c#	.	.	.
.	.	8B	.	.	.
.	.	8A	.	.	.
iii7	4DD	8G#	4d#	4b	4aa
.	.	8F#	.	.	.
=15	=15	=15	=15	=15	=15
I	4BB-	8E	2e	4b	4gg#
.	.	8G#	.	.	.
ii7b	4CC	8A	.	4cc#	2ff#
.	.	8F#	.	.	.
V7	4FF	8B	4d#	8b	.
.	.	8BB	.	8a	.
=16	=16	=16	=16	=16	=16
I;	2BB-;	2E;	2B;	2g#;	2ee;
==	==	==	==	==	==
*-	*-	*-	*-	*-	*-
!!chor2scor: -l 2 -s 0.6 -o %b.pmx
!!!YEC: Copyright 2003 by Craig Stuart Sapp
!!!license: GNU General Public License (http://www.gnu.org/copyleft/gpl.html)
!!!SMA: 371 Bach Chorales, edited by Ludwig Erk, C.F. Peters
!!!PDT: 1850, 1865
